X: 6081
T: Captain Byng
R: reel
M: 4/4
K: Gmajor
d|~g3d BG (3Bcd|eaag fdef|~g3d BGGB|cAdc BGGf|
~g3d BG (3Bcd|eaag fdcA|Bdef ~g3e|dBAB GFGA||
BGdG BGAB|cAeA cAAc|BGdG BGAB|cAdc BGGA|
BGdG BGAB|cAeA cedc|Bdef ~g3e|dBAB GABd||

